public/Icons/grid-com.svg

<svg fill="none" height="800" viewBox="0 0 24 24" width="800" xmlns="http://www.w3.org/2000/svg"><path d="m20 9.33333v-3.33333c0-1.10457-.8954-2-2-2h-3.3333m5.3333 5.33333h-5.3333m5.3333 0v5.33337m-16-5.33337v-3.33333c0-1.10457.89543-2 2-2h3.33333m-5.33333 5.33333h5.33333m-5.33333 0v5.33337m10.6667-5.33337h-5.33337m5.33337 0v-5.33333m0 5.33333v5.33337m-5.33337-5.33337v-5.33333m0 5.33333v5.33337m10.66667 0v3.3333c0 1.1046-.8954 2-2 2h-3.3333m5.3333-5.3333h-5.3333m-10.6667 0v3.3333c0 1.1046.89543 2 2 2h3.33333m-5.33333-5.3333h5.33333m5.33337 0h-5.33337m5.33337 0v5.3333m-5.33337-5.3333v5.3333m0-16h5.33337m-5.33337 16h5.33337" stroke="#183331" stroke-linecap="round" stroke-linejoin="round" stroke-width="2"/></svg>

<!DOCTYPE svg PUBLIC "-//W3C//DTD SVG 1.1//EN" "http://www.w3.org/Graphics/SVG/1.1/DTD/svg11.dtd">
<!-- Uploaded to: SVG Repo, www.svgrepo.com, Transformed by: SVG Repo Mixer Tools -->
<svg width="800px" height="800px" viewBox="0 0 24 24" fill="none" xmlns="http://www.w3.org/2000/svg">
<g id="SVGRepo_bgCarrier" stroke-width="0"/>
<g id="SVGRepo_tracerCarrier" stroke-linecap="round" stroke-linejoin="round"/>
<g id="SVGRepo_iconCarrier"> <path d="M20 9.33333V6C20 4.89543 19.1046 4 18 4H14.6667M20 9.33333H14.6667M20 9.33333V14.6667M4 9.33333V6C4 4.89543 4.89543 4 6 4H9.33333M4 9.33333H9.33333M4 9.33333V14.6667M14.6667 9.33333H9.33333M14.6667 9.33333V4M14.6667 9.33333V14.6667M9.33333 9.33333V4M9.33333 9.33333V14.6667M20 14.6667V18C20 19.1046 19.1046 20 18 20H14.6667M20 14.6667H14.6667M4 14.6667V18C4 19.1046 4.89543 20 6 20H9.33333M4 14.6667H9.33333M14.6667 14.6667H9.33333M14.6667 14.6667V20M9.33333 14.6667V20M9.33333 4H14.6667M9.33333 20H14.6667" stroke="#183331" stroke-width="2" stroke-linecap="round" stroke-linejoin="round"/> </g>
</svg>
